public/android.svg

<svg width="24" height="24" viewBox="0 0 24 24" fill="none" xmlns="http://www.w3.org/2000/svg">
<path d="M21.4 12.95L18.62 14.34C18.43 14.44 18.2 14.4 18.04 14.25L16.17 12.38C15.97 12.18 15.97 11.87 16.17 11.67L18.07 9.77002C18.22 9.62002 18.46 9.58002 18.65 9.68002L21.4 11.06C22.19 11.44 22.19 12.56 21.4 12.95Z" fill="white"/>
<path d="M16.3 8.48996C16.61 8.63996 16.67 9.04998 16.43 9.28998L14.76 10.96L14.05 11.67C13.85 11.87 13.54 11.87 13.34 11.67L6.19997 4.52997C5.79997 4.12997 6.26997 3.47998 6.77997 3.72998L16.3 8.48996Z" fill="white"/>
<path d="M2 20.1501V3.48008C2 3.04008 2.53 2.81007 2.85 3.12007L11.62 11.6301C11.83 11.8301 11.82 12.1601 11.61 12.3601L2.84 20.5201C2.52 20.8201 2 20.5901 2 20.1501Z" fill="white"/>
<path d="M16.2699 15.52L6.87995 20.22C6.36995 20.47 5.89995 19.82 6.29995 19.42L13.3499 12.37C13.5499 12.17 13.8599 12.17 14.0599 12.37L16.4099 14.72C16.6399 14.96 16.5699 15.37 16.2699 15.52Z" fill="white"/>
</svg>

<svg width="24" height="24" fill="none" xmlns="http://www.w3.org/2000/svg"><path d="m21.4 12.95-2.78 1.39c-.19.1-.42.06-.58-.09l-1.87-1.87c-.2-.2-.2-.51 0-.71l1.9-1.9c.15-.15.39-.19.58-.09l2.75 1.38c.79.38.79 1.5 0 1.89ZM16.3 8.49c.31.15.37.56.13.8l-1.67 1.67-.71.71c-.2.2-.51.2-.71 0L6.2 4.53c-.4-.4.07-1.05.58-.8l9.52 4.76ZM2 20.15V3.48c0-.44.53-.67.85-.36l8.77 8.51c.21.2.2.53-.01.73l-8.77 8.16a.5.5 0 0 1-.84-.37ZM16.27 15.52l-9.39 4.7c-.51.25-.98-.4-.58-.8l7.05-7.05c.2-.2.51-.2.71 0l2.35 2.35c.23.24.16.65-.14.8Z" fill="#fff"/></svg>
